X:1
T:Prentice Boy
M:4/4
L:1/4
K:Eb
 B,/4B,/4| E E G F/2E/2| C3/2 B,/2 B,3/2 B,/2| E G B3/2 G/2| c c B3/2|\
 E/2| G G B3/2 B/2| G3/2 G/2 B3/2 c/4B/4| G G G B3/4 A/4| G E E3/2|\
 z/2| B,3/2 E/2 G B| G3/2 z/2 z2| C3/2 C/2 C C| B,3||
